icons/type-icons/icons/image-vnd.dgn.svg

<?xml version="1.0" encoding="UTF-8" standalone="no"?>

<!-- Created with Inkscape (http://www.inkscape.org/) -->
<svg width="22" version="1.1" xmlns="http://www.w3.org/2000/svg" height="22" xmlns:xlink="http://www.w3.org/1999/xlink" xmlns:inkscape="http://www.inkscape.org/namespaces/inkscape">
 <defs id="defs3871">
  <linearGradient inkscape:collect="always" id="linearGradient4300-8">
   <stop style="stop-color:#f27935" id="stop4302-5"/>
   <stop offset="1" style="stop-color:#f2784b" id="stop4304-7"/>
  </linearGradient>
  <linearGradient inkscape:collect="always" id="linearGradient4357" xlink:href="#linearGradient4351" y1="61" y2="47" gradientUnits="userSpaceOnUse" x2="0"/>
  <linearGradient inkscape:collect="always" id="linearGradient4410">
   <stop style="stop-color:#383e51" id="stop4412"/>
   <stop offset="1" style="stop-color:#655c6f;stop-opacity:0" id="stop4414"/>
  </linearGradient>
  <linearGradient inkscape:collect="always" id="linearGradient4427" xlink:href="#linearGradient4410" y1="31" y2="17" x1="54" gradientUnits="userSpaceOnUse" x2="40" gradientTransform="matrix(1 0 0 -1 -14 78)"/>
  <linearGradient inkscape:collect="always" id="linearGradient4306" xlink:href="#linearGradient4300-8" y1="61" y2="3" gradientUnits="userSpaceOnUse" x2="0"/>
  <linearGradient inkscape:collect="always" id="linearGradient4351">
   <stop style="stop-color:#f7ab89" id="stop4353"/>
   <stop offset="1" style="stop-color:#f9bda3" id="stop4355"/>
  </linearGradient>
  <linearGradient inkscape:collect="always" xlink:href="#linearGradient4410" id="linearGradient3444" y1="31" x1="54" y2="17" gradientUnits="userSpaceOnUse" x2="40" gradientTransform="matrix(1 0 0 -1 503.93261 656.69754)"/>
  <linearGradient inkscape:collect="always" xlink:href="#linearGradient4351" id="linearGradient3447" y1="61" y2="47" gradientUnits="userSpaceOnUse" x2="0" gradientTransform="matrix(1 0 0 1 517.93261 578.69754)"/>
  <linearGradient inkscape:collect="always" xlink:href="#linearGradient4300-8" id="linearGradient3452" y1="61" y2="3" gradientUnits="userSpaceOnUse" x2="0" gradientTransform="matrix(1 0 0 1 517.93261 578.69754)"/>
 </defs>
 <metadata id="metadata3874"/>
 <g inkscape:label="Capa 1" inkscape:groupmode="layer" id="layer1" transform="matrix(1 0 0 1 -326 -534.3622)">
  <path style="fill:#22a7f0;fill-rule:evenodd" id="path5743" d="M 10 6.25 L 7 7 L 7.8242188 7.8242188 L 10 7.28125 L 10 6.25 z M 4.8671875 7.5332031 L 3 8 L 3 17 L 11 19 L 11 10 L 5.0625 8.515625 L 5.6914062 8.359375 L 4.8671875 7.5332031 z " transform="matrix(1 0 0 1 326 534.3622)"/>
  <path style="fill:#22a7f0;fill-rule:evenodd" id="path5743-8" d="M 13 6.5 L 13 7.53125 L 16.9375 8.515625 L 12 9.75 L 12 18.75 L 19 17 L 19 8 L 13 6.5 z M 18 9.28125 L 18 15.720703 L 13 14.470703 L 13 10.53125 L 18 9.28125 z M 13 15.5 L 16.941406 16.484375 L 13 17.470703 L 13 15.5 z " transform="matrix(1 0 0 1 326 534.3622)"/>
  <rect width="3" x="336" y="537.36218" rx="0.000017" height="3" style="fill:#22a7f0;stroke-width:2" id="rect5831"/>
 </g>
</svg>

<?xml version="1.0" encoding="UTF-8"?>
<svg width="22" height="22" version="1.1" xmlns="http://www.w3.org/2000/svg">
 <g id="layer1" transform="translate(-326 -534.36)" fill="#22a7f0">
  <path id="path5743" transform="translate(326 534.36)" d="m10 6.25-3 0.75 0.82422 0.82422 2.1758-0.54297v-1.0312zm-5.1328 1.2832-1.8672 0.4668v9l8 2v-9l-5.9375-1.4844 0.62891-0.15625-0.82422-0.82617z" fill-rule="evenodd"/>
  <path id="path5743-8" transform="translate(326 534.36)" d="m13 6.5v1.0312l3.9375 0.98438-4.9375 1.2344v9l7-1.75v-9l-6-1.5zm5 2.7812v6.4395l-5-1.25v-3.9395l5-1.25zm-5 6.2188 3.9414 0.98438-3.9414 0.98633v-1.9707z" fill-rule="evenodd"/>
  <rect id="rect5831" x="336" y="537.36" width="3" height="3" rx="1.7e-5" stroke-width="2"/>
 </g>
</svg>
